src/assets/Devices/Steam Deck Front-dpad.svg

<svg width="1766" height="698" viewBox="0 0 1766 698" fill="none" xmlns="http://www.w3.org/2000/svg">
<path opacity="0.2" d="M20.1645 69.8373C1.5714 100.901 2.24767 143.075 3.60021 227.424L6.57658 413.042C8.31457 521.429 9.18356 575.622 34.0895 615.33C48.0318 637.559 66.9869 656.212 89.4359 669.796C129.538 694.062 183.739 694.062 292.14 694.062H1473.03C1581.43 694.062 1635.63 694.062 1675.73 669.796C1698.18 656.212 1717.13 637.559 1731.08 615.33C1755.98 575.622 1756.85 521.429 1758.59 413.042L1761.57 227.424C1762.92 143.075 1763.59 100.901 1745 69.8373C1734.6 52.4634 1720.2 37.8278 1702.99 27.1513C1672.23 8.0625 1630.05 8.0625 1545.69 8.0625H219.472C135.113 8.0625 92.9328 8.0625 62.1716 27.1513C44.9666 37.8278 30.5638 52.4634 20.1645 69.8373Z" stroke="white" stroke-width="6"/>
<rect opacity="0.2" x="166.082" y="251.062" width="187" height="186" rx="24" stroke="white" stroke-width="3"/>
<rect opacity="0.2" x="1411.08" y="251.062" width="187" height="186" rx="24" stroke="white" stroke-width="3"/>
<path opacity="0.2" d="M181.082 50.5625C181.082 44.2112 186.231 39.0625 192.582 39.0625H220.582C226.933 39.0625 232.082 44.2112 232.082 50.5625V50.5625C232.082 56.9138 226.933 62.0625 220.582 62.0625H192.582C186.231 62.0625 181.082 56.9138 181.082 50.5625V50.5625Z" stroke="white" stroke-width="3"/>
<path opacity="0.2" d="M1532.08 50.5625C1532.08 44.2112 1537.23 39.0625 1543.58 39.0625H1571.58C1577.93 39.0625 1583.08 44.2112 1583.08 50.5625V50.5625C1583.08 56.9138 1577.93 62.0625 1571.58 62.0625H1543.58C1537.23 62.0625 1532.08 56.9138 1532.08 50.5625V50.5625Z" stroke="white" stroke-width="3"/>
<path opacity="0.2" d="M1411.08 492.562C1411.08 482.345 1419.36 474.062 1429.58 474.062H1485.58C1495.8 474.062 1504.08 482.345 1504.08 492.562V492.562C1504.08 502.78 1495.8 511.062 1485.58 511.062H1429.58C1419.36 511.062 1411.08 502.78 1411.08 492.562V492.562Z" stroke="white"/>
<path opacity="0.2" d="M260.082 492.562C260.082 482.345 268.365 474.062 278.582 474.062H334.582C344.799 474.062 353.082 482.345 353.082 492.562V492.562C353.082 502.78 344.799 511.062 334.582 511.062H278.582C268.365 511.062 260.082 502.78 260.082 492.562V492.562Z" stroke="white"/>
<g opacity="0.2">
<path d="M259.082 549.562C259.082 547.63 260.649 546.062 262.582 546.062H276.582C278.515 546.062 280.082 547.63 280.082 549.562V549.562C280.082 551.495 278.515 553.062 276.582 553.062H262.582C260.649 553.062 259.082 551.495 259.082 549.562V549.562Z" stroke="white"/>
<path d="M271.082 567.562C271.082 565.63 272.649 564.062 274.582 564.062H288.582C290.515 564.062 292.082 565.63 292.082 567.562V567.562C292.082 569.495 290.515 571.062 288.582 571.062H274.582C272.649 571.062 271.082 569.495 271.082 567.562V567.562Z" stroke="white"/>
<path d="M285.082 549.562C285.082 547.63 286.649 546.062 288.582 546.062H302.582C304.515 546.062 306.082 547.63 306.082 549.562V549.562C306.082 551.495 304.515 553.062 302.582 553.062H288.582C286.649 553.062 285.082 551.495 285.082 549.562V549.562Z" stroke="white"/>
<path d="M285.082 585.562C285.082 583.63 286.649 582.062 288.582 582.062H302.582C304.515 582.062 306.082 583.63 306.082 585.562V585.562C306.082 587.495 304.515 589.062 302.582 589.062H288.582C286.649 589.062 285.082 587.495 285.082 585.562V585.562Z" stroke="white"/>
<path d="M311.082 549.562C311.082 547.63 312.649 546.062 314.582 546.062H328.582C330.515 546.062 332.082 547.63 332.082 549.562V549.562C332.082 551.495 330.515 553.062 328.582 553.062H314.582C312.649 553.062 311.082 551.495 311.082 549.562V549.562Z" stroke="white"/>
<path d="M297.082 567.562C297.082 565.63 298.649 564.062 300.582 564.062H314.582C316.515 564.062 318.082 565.63 318.082 567.562V567.562C318.082 569.495 316.515 571.062 314.582 571.062H300.582C298.649 571.062 297.082 569.495 297.082 567.562V567.562Z" stroke="white"/>
<path d="M337.082 549.562C337.082 547.63 338.649 546.062 340.582 546.062H354.582C356.515 546.062 358.082 547.63 358.082 549.562V549.562C358.082 551.495 356.515 553.062 354.582 553.062H340.582C338.649 553.062 337.082 551.495 337.082 549.562V549.562Z" stroke="white"/>
<path d="M311.082 585.562C311.082 583.63 312.649 582.062 314.582 582.062H328.582C330.515 582.062 332.082 583.63 332.082 585.562V585.562C332.082 587.495 330.515 589.062 328.582 589.062H314.582C312.649 589.062 311.082 587.495 311.082 585.562V585.562Z" stroke="white"/>
<path d="M323.082 567.562C323.082 565.63 324.649 564.062 326.582 564.062H354.582C356.515 564.062 358.082 565.63 358.082 567.562V567.562C358.082 569.495 356.515 571.062 354.582 571.062H326.582C324.649 571.062 323.082 569.495 323.082 567.562V567.562Z" stroke="white"/>
<path d="M337.082 585.562C337.082 583.63 338.649 582.062 340.582 582.062H354.582C356.515 582.062 358.082 583.63 358.082 585.562V585.562C358.082 587.495 356.515 589.062 354.582 589.062H340.582C338.649 589.062 337.082 587.495 337.082 585.562V585.562Z" stroke="white"/>
</g>
<g opacity="0.2">
<path d="M1507.08 549.562C1507.08 547.63 1505.52 546.062 1503.58 546.062H1489.58C1487.65 546.062 1486.08 547.63 1486.08 549.562V549.562C1486.08 551.495 1487.65 553.062 1489.58 553.062H1503.58C1505.52 553.062 1507.08 551.495 1507.08 549.562V549.562Z" stroke="white"/>
<path d="M1495.08 567.562C1495.08 565.63 1493.52 564.062 1491.58 564.062H1477.58C1475.65 564.062 1474.08 565.63 1474.08 567.562V567.562C1474.08 569.495 1475.65 571.062 1477.58 571.062H1491.58C1493.52 571.062 1495.08 569.495 1495.08 567.562V567.562Z" stroke="white"/>
<path d="M1481.08 549.562C1481.08 547.63 1479.52 546.062 1477.58 546.062H1463.58C1461.65 546.062 1460.08 547.63 1460.08 549.562V549.562C1460.08 551.495 1461.65 553.062 1463.58 553.062H1477.58C1479.52 553.062 1481.08 551.495 1481.08 549.562V549.562Z" stroke="white"/>
<path d="M1481.08 585.562C1481.08 583.63 1479.52 582.062 1477.58 582.062H1463.58C1461.65 582.062 1460.08 583.63 1460.08 585.562V585.562C1460.08 587.495 1461.65 589.062 1463.58 589.062H1477.58C1479.52 589.062 1481.08 587.495 1481.08 585.562V585.562Z" stroke="white"/>
<path d="M1455.08 549.562C1455.08 547.63 1453.52 546.062 1451.58 546.062H1437.58C1435.65 546.062 1434.08 547.63 1434.08 549.562V549.562C1434.08 551.495 1435.65 553.062 1437.58 553.062H1451.58C1453.52 553.062 1455.08 551.495 1455.08 549.562V549.562Z" stroke="white"/>
<path d="M1469.08 567.562C1469.08 565.63 1467.52 564.062 1465.58 564.062H1451.58C1449.65 564.062 1448.08 565.63 1448.08 567.562V567.562C1448.08 569.495 1449.65 571.062 1451.58 571.062H1465.58C1467.52 571.062 1469.08 569.495 1469.08 567.562V567.562Z" stroke="white"/>
<path d="M1429.08 549.562C1429.08 547.63 1427.52 546.062 1425.58 546.062H1411.58C1409.65 546.062 1408.08 547.63 1408.08 549.562V549.562C1408.08 551.495 1409.65 553.062 1411.58 553.062H1425.58C1427.52 553.062 1429.08 551.495 1429.08 549.562V549.562Z" stroke="white"/>
<path d="M1455.08 585.562C1455.08 583.63 1453.52 582.062 1451.58 582.062H1437.58C1435.65 582.062 1434.08 583.63 1434.08 585.562V585.562C1434.08 587.495 1435.65 589.062 1437.58 589.062H1451.58C1453.52 589.062 1455.08 587.495 1455.08 585.562V585.562Z" stroke="white"/>
<path d="M1443.08 567.562C1443.08 565.63 1441.52 564.062 1439.58 564.062H1411.58C1409.65 564.062 1408.08 565.63 1408.08 567.562V567.562C1408.08 569.495 1409.65 571.062 1411.58 571.062H1439.58C1441.52 571.062 1443.08 569.495 1443.08 567.562V567.562Z" stroke="white"/>
<path d="M1429.08 585.562C1429.08 583.63 1427.52 582.062 1425.58 582.062H1411.58C1409.65 582.062 1408.08 583.63 1408.08 585.562V585.562C1408.08 587.495 1409.65 589.062 1411.58 589.062H1425.58C1427.52 589.062 1429.08 587.495 1429.08 585.562V585.562Z" stroke="white"/>
</g>
<g opacity="0.2">
<circle opacity="0.3" cx="1483.08" cy="149.062" r="82" stroke="white"/>
<circle cx="1483.08" cy="149.062" r="59" stroke="white" stroke-width="3"/>
<circle cx="1484.08" cy="149.062" r="41" stroke="white"/>
</g>
<g opacity="0.2">
<circle cx="278.082" cy="149.062" r="41" stroke="white"/>
<circle cx="277.082" cy="149.062" r="59" stroke="white" stroke-width="3"/>
<circle opacity="0.3" cx="277.082" cy="149.062" r="82" stroke="white"/>
</g>
<path d="M48.6855 101.79C49.1657 100.148 50.6994 99.0625 52.4108 99.0625H77.282C81.7625 99.0625 84.0027 99.0625 85.714 98.1906C87.2193 97.4236 88.4431 96.1997 89.2101 94.6944C90.082 92.9831 90.082 90.7429 90.082 86.2625V61.3912C90.082 59.6799 91.1673 58.1462 92.8099 57.6659C98.6063 55.9713 104.738 55.0625 111.082 55.0625C117.426 55.0625 123.558 55.9713 129.354 57.6659C130.997 58.1462 132.082 59.6799 132.082 61.3912V86.2625C132.082 90.7429 132.082 92.9831 132.954 94.6944C133.721 96.1997 134.945 97.4236 136.45 98.1906C138.161 99.0625 140.402 99.0625 144.882 99.0625H169.753C171.465 99.0625 172.998 100.148 173.479 101.79C175.173 107.587 176.082 113.718 176.082 120.062C176.082 126.407 175.173 132.538 173.479 138.335C172.998 139.977 171.465 141.062 169.753 141.062H144.882C140.402 141.062 138.161 141.062 136.45 141.934C134.945 142.701 133.721 143.925 132.954 145.431C132.082 147.142 132.082 149.382 132.082 153.863V178.734C132.082 180.445 130.997 181.979 129.354 182.459C123.558 184.154 117.426 185.062 111.082 185.062C104.738 185.062 98.6063 184.154 92.8099 182.459C91.1673 181.979 90.082 180.445 90.082 178.734V153.863C90.082 149.382 90.082 147.142 89.2101 145.431C88.4431 143.925 87.2193 142.701 85.714 141.934C84.0027 141.062 81.7625 141.062 77.282 141.062H52.4108C50.6994 141.062 49.1657 139.977 48.6855 138.335C46.9909 132.538 46.082 126.407 46.082 120.062C46.082 113.718 46.9909 107.587 48.6855 101.79Z" stroke="white" stroke-width="6"/>
<g opacity="0.2">
<circle cx="1656.08" cy="69.0625" r="26" stroke="white" stroke-width="3"/>
<circle cx="1604.08" cy="121.062" r="26" stroke="white" stroke-width="3"/>
<circle cx="1707.08" cy="121.062" r="26" stroke="white" stroke-width="3"/>
<circle cx="1656.08" cy="172.062" r="26" stroke="white" stroke-width="3"/>
<path d="M1654.56 79.0625V71.6797L1647.9 59.1562H1651.98L1655.89 66.7441C1656.02 66.9993 1656.13 67.2409 1656.23 67.4688C1656.33 67.6875 1656.43 67.9154 1656.52 68.1523H1656.6C1656.69 67.9154 1656.79 67.6875 1656.89 67.4688C1656.99 67.2409 1657.1 66.9993 1657.23 66.7441L1661.18 59.1562H1664.84L1658.27 71.5703V79.0625H1654.56Z" fill="white"/>
<path d="M1646.77 182.062L1653.89 162.088H1657.8L1664.95 182.062H1661.11L1656.2 167.639C1656.09 167.311 1656 167.005 1655.93 166.723C1655.85 166.44 1655.79 166.162 1655.72 165.889H1655.63C1655.57 166.162 1655.51 166.44 1655.44 166.723C1655.36 167.005 1655.27 167.311 1655.16 167.639L1650.29 182.062H1646.77ZM1650.47 177.441L1651.28 174.734H1660.25L1661.05 177.441H1650.47Z" fill="white"/>
<path d="M1595.95 131.062L1602.88 119.77H1603.48L1608.46 111.156H1612.13L1605.62 122.012H1605.05L1599.69 131.062H1595.95ZM1596.27 111.156L1600.44 111.17L1605.5 119.756H1605.56L1612.53 131.062H1608.33L1602.95 122.053H1602.9L1596.27 111.156Z" fill="white"/>
<path d="M1700.93 131.062V111.156H1708.06C1710.12 111.156 1711.7 111.585 1712.82 112.441C1713.94 113.289 1714.5 114.588 1714.5 116.338C1714.5 117.45 1714.25 118.366 1713.74 119.086C1713.24 119.806 1712.6 120.298 1711.84 120.562V120.617C1712.79 120.882 1713.57 121.415 1714.18 122.217C1714.79 123.019 1715.09 124.081 1715.09 125.402C1715.09 127.198 1714.49 128.592 1713.27 129.586C1712.07 130.57 1710.46 131.062 1708.45 131.062H1700.93ZM1704.56 128.396H1708.13C1709.25 128.396 1710.08 128.109 1710.61 127.535C1711.14 126.961 1711.4 126.182 1711.4 125.197C1711.4 124.222 1711.14 123.443 1710.61 122.859C1710.08 122.276 1709.25 121.984 1708.13 121.984H1704.56V128.396ZM1704.56 119.551H1707.76C1708.88 119.551 1709.68 119.3 1710.17 118.799C1710.66 118.288 1710.91 117.577 1710.91 116.666C1710.91 115.764 1710.66 115.071 1710.17 114.588C1709.68 114.105 1708.88 113.863 1707.76 113.863H1704.56V119.551Z" fill="white"/>
</g>
<rect opacity="0.2" x="439.082" y="76.0625" width="888" height="556" stroke="white"/>
<rect opacity="0.2" x="373.082" y="39.0625" width="1016" height="629" rx="6" stroke="white" stroke-width="3"/>
<path opacity="0.2" d="M6.34163 240.981C5.85903 203.579 5.49786 175.558 7.03638 153.311C8.57449 131.07 12.0093 114.643 19.0938 100.423C31.5806 75.3596 51.7422 54.9362 76.6427 42.1271C90.7702 34.8598 107.151 31.2133 129.37 29.3883C151.596 27.5629 179.619 27.5625 217.024 27.5625H1548.14C1585.54 27.5625 1613.57 27.5629 1635.79 29.3883C1658.01 31.2133 1674.39 34.8598 1688.52 42.1271C1713.42 54.9362 1733.58 75.3596 1746.07 100.423C1753.15 114.643 1756.59 131.07 1758.13 153.311C1759.66 175.558 1759.3 203.579 1758.82 240.981L1758.7 250.562H1699.08H1699.06C1690.68 250.562 1684.36 250.562 1679.34 250.973C1674.3 251.384 1670.53 252.21 1667.23 253.887C1661.5 256.811 1656.83 261.477 1653.91 267.216C1652.23 270.507 1651.4 274.284 1650.99 279.318C1650.58 284.341 1650.58 290.659 1650.58 299.04V299.062V393.062C1650.58 398.158 1650.58 404.489 1650.67 408.229C1650.67 426.289 1640.27 450.308 1624.56 476.962C1608.86 503.594 1587.93 532.764 1566.98 561.098C1562.08 567.73 1557.17 574.318 1552.33 580.816C1536.51 602.066 1521.4 622.361 1509.36 640.168C1501.5 651.794 1494.94 662.375 1490.34 671.479C1485.89 680.308 1483.24 687.812 1483.1 693.562H280.068C279.924 687.693 277.28 680.111 272.82 671.233C268.224 662.085 261.664 651.495 253.804 639.881C241.737 622.051 226.582 601.772 210.717 580.545C205.917 574.122 201.052 567.612 196.187 561.056C175.24 532.827 154.308 503.752 138.612 477.106C122.904 450.437 112.5 426.294 112.498 407.901C112.581 404.238 112.581 398.015 112.581 393.068V393.062V299.062V299.039C112.581 290.658 112.581 284.341 112.171 279.318C111.76 274.284 110.934 270.507 109.257 267.216C106.333 261.477 101.667 256.811 95.9281 253.887C92.6372 252.21 88.8595 251.384 83.826 250.973C78.803 250.562 72.4856 250.562 64.1047 250.562H64.0813H6.46526L6.34163 240.981Z" stroke="white"/>
<path opacity="0.2" d="M132.582 1.0625C100.082 1.0625 67.082 10.0625 51.582 34.5625C75.582 10.0625 138.082 7.5625 161.582 7.5625C185.082 7.5625 285.082 11.0625 283.082 7.5625C281.082 4.0625 272.582 1.0625 263.582 1.0625H132.582Z" stroke="white" stroke-width="2"/>
<path opacity="0.2" d="M1629.61 1.0625C1662.11 1.0625 1695.11 10.0625 1710.61 34.5625C1686.61 10.0625 1624.11 7.5625 1600.61 7.5625C1577.11 7.5625 1477.11 11.0625 1479.11 7.5625C1481.11 4.0625 1489.61 1.0625 1498.61 1.0625H1629.61Z" stroke="white" stroke-width="2"/>
<g opacity="0.2">
<rect x="204.472" y="49.8592" width="11.037" height="7.42558" stroke="white" stroke-width="1.58365"/>
<path fill-rule="evenodd" clip-rule="evenodd" d="M199.584 45.5837H209.037V47.9415H210.621V45.5837V44H209.037H199.584H198V45.5837V51.4256V53.0092H199.584H202.417V51.4256H199.584V45.5837Z" fill="white"/>
</g>
<g opacity="0.2">
<path fill-rule="evenodd" clip-rule="evenodd" d="M1550 45H1565V46.7143H1550V45ZM1550 50.1429H1565V51.8571H1550V50.1429ZM1565 55.2857H1550V57H1565V55.2857Z" fill="white"/>
</g>
</svg>

<svg width="1766" height="698" fill="none" xmlns="http://www.w3.org/2000/svg"><path opacity=".2" d="M20.165 69.837C1.57 100.901 2.247 143.075 3.6 227.424l2.977 185.618C8.315 521.429 9.184 575.622 34.09 615.33a167.993 167.993 0 0 0 55.346 54.466c40.102 24.266 94.303 24.266 202.704 24.266h1180.89c108.4 0 162.6 0 202.7-24.266a168.068 168.068 0 0 0 55.35-54.466c24.9-39.708 25.77-93.901 27.51-202.288l2.98-185.618c1.35-84.349 2.02-126.523-16.57-157.587a126.97 126.97 0 0 0-42.01-42.686c-30.76-19.088-72.94-19.088-157.3-19.088H219.472c-84.359 0-126.54 0-157.3 19.088a127 127 0 0 0-42.007 42.686Z" stroke="#fff" stroke-width="6"/><rect opacity=".2" x="166.083" y="251.062" width="187" height="186" rx="24" stroke="#fff" stroke-width="3"/><rect opacity=".2" x="1411.08" y="251.062" width="187" height="186" rx="24" stroke="#fff" stroke-width="3"/><path opacity=".2" d="M181.083 50.563c0-6.352 5.148-11.5 11.5-11.5h28c6.351 0 11.5 5.148 11.5 11.5 0 6.35-5.149 11.5-11.5 11.5h-28c-6.352 0-11.5-5.15-11.5-11.5Zm1350.997 0c0-6.352 5.15-11.5 11.5-11.5h28c6.35 0 11.5 5.148 11.5 11.5 0 6.35-5.15 11.5-11.5 11.5h-28c-6.35 0-11.5-5.15-11.5-11.5Z" stroke="#fff" stroke-width="3"/><path opacity=".2" d="M1411.08 492.562c0-10.217 8.29-18.5 18.5-18.5h56c10.22 0 18.5 8.283 18.5 18.5 0 10.218-8.28 18.5-18.5 18.5h-56c-10.21 0-18.5-8.282-18.5-18.5Zm-1150.997 0c0-10.217 8.282-18.5 18.5-18.5h56c10.217 0 18.5 8.283 18.5 18.5 0 10.218-8.283 18.5-18.5 18.5h-56c-10.218 0-18.5-8.282-18.5-18.5Zm-1 57a3.5 3.5 0 0 1 3.5-3.5h14a3.5 3.5 0 1 1 0 7h-14a3.5 3.5 0 0 1-3.5-3.5Zm12 18a3.5 3.5 0 0 1 3.5-3.5h14a3.5 3.5 0 1 1 0 7h-14a3.5 3.5 0 0 1-3.5-3.5Zm14-18a3.5 3.5 0 0 1 3.5-3.5h14a3.5 3.5 0 1 1 0 7h-14a3.5 3.5 0 0 1-3.5-3.5Zm0 36a3.5 3.5 0 0 1 3.5-3.5h14a3.5 3.5 0 1 1 0 7h-14a3.5 3.5 0 0 1-3.5-3.5Zm26-36a3.5 3.5 0 0 1 3.5-3.5h14a3.5 3.5 0 1 1 0 7h-14a3.5 3.5 0 0 1-3.5-3.5Zm-14 18a3.5 3.5 0 0 1 3.5-3.5h14a3.5 3.5 0 1 1 0 7h-14a3.5 3.5 0 0 1-3.5-3.5Zm40-18a3.5 3.5 0 0 1 3.5-3.5h14a3.5 3.5 0 1 1 0 7h-14a3.5 3.5 0 0 1-3.5-3.5Zm-26 36a3.5 3.5 0 0 1 3.5-3.5h14a3.5 3.5 0 1 1 0 7h-14a3.5 3.5 0 0 1-3.5-3.5Zm12-18a3.5 3.5 0 0 1 3.5-3.5h28a3.5 3.5 0 1 1 0 7h-28a3.5 3.5 0 0 1-3.5-3.5Zm14 18a3.5 3.5 0 0 1 3.5-3.5h14a3.5 3.5 0 1 1 0 7h-14a3.5 3.5 0 0 1-3.5-3.5Zm1169.997-36c0-1.932-1.56-3.5-3.5-3.5h-14c-1.93 0-3.5 1.568-3.5 3.5 0 1.933 1.57 3.5 3.5 3.5h14c1.94 0 3.5-1.567 3.5-3.5Zm-12 18c0-1.932-1.56-3.5-3.5-3.5h-14c-1.93 0-3.5 1.568-3.5 3.5 0 1.933 1.57 3.5 3.5 3.5h14c1.94 0 3.5-1.567 3.5-3.5Zm-14-18c0-1.932-1.56-3.5-3.5-3.5h-14c-1.93 0-3.5 1.568-3.5 3.5 0 1.933 1.57 3.5 3.5 3.5h14c1.94 0 3.5-1.567 3.5-3.5Zm0 36c0-1.932-1.56-3.5-3.5-3.5h-14c-1.93 0-3.5 1.568-3.5 3.5 0 1.933 1.57 3.5 3.5 3.5h14c1.94 0 3.5-1.567 3.5-3.5Zm-26-36c0-1.932-1.56-3.5-3.5-3.5h-14c-1.93 0-3.5 1.568-3.5 3.5 0 1.933 1.57 3.5 3.5 3.5h14c1.94 0 3.5-1.567 3.5-3.5Zm14 18c0-1.932-1.56-3.5-3.5-3.5h-14c-1.93 0-3.5 1.568-3.5 3.5 0 1.933 1.57 3.5 3.5 3.5h14c1.94 0 3.5-1.567 3.5-3.5Zm-40-18c0-1.932-1.56-3.5-3.5-3.5h-14c-1.93 0-3.5 1.568-3.5 3.5 0 1.933 1.57 3.5 3.5 3.5h14c1.94 0 3.5-1.567 3.5-3.5Zm26 36c0-1.932-1.56-3.5-3.5-3.5h-14c-1.93 0-3.5 1.568-3.5 3.5 0 1.933 1.57 3.5 3.5 3.5h14c1.94 0 3.5-1.567 3.5-3.5Zm-12-18c0-1.932-1.56-3.5-3.5-3.5h-28c-1.93 0-3.5 1.568-3.5 3.5 0 1.933 1.57 3.5 3.5 3.5h28c1.94 0 3.5-1.567 3.5-3.5Zm-14 18c0-1.932-1.56-3.5-3.5-3.5h-14c-1.93 0-3.5 1.568-3.5 3.5 0 1.933 1.57 3.5 3.5 3.5h14c1.94 0 3.5-1.567 3.5-3.5Z" stroke="#fff"/><g opacity=".2" stroke="#fff"><circle opacity=".3" cx="1483.08" cy="149.062" r="82"/><circle cx="1483.08" cy="149.062" r="59" stroke-width="3"/><circle cx="1484.08" cy="149.062" r="41"/></g><g opacity=".2" stroke="#fff"><circle cx="278.083" cy="149.062" r="41"/><circle cx="277.083" cy="149.062" r="59" stroke-width="3"/><circle opacity=".3" cx="277.083" cy="149.062" r="82"/></g><path d="M48.686 101.79c.48-1.642 2.014-2.728 3.725-2.728h24.871c4.48 0 6.721 0 8.432-.871a8 8 0 0 0 3.497-3.497c.871-1.71.871-3.951.871-8.431V61.39c0-1.711 1.086-3.245 2.728-3.725a65.027 65.027 0 0 1 18.273-2.603c6.344 0 12.475.908 18.272 2.603 1.642.48 2.728 2.014 2.728 3.725v24.872c0 4.48 0 6.72.871 8.431a7.999 7.999 0 0 0 3.497 3.497c1.711.871 3.951.871 8.432.871h24.871c1.711 0 3.245 1.086 3.725 2.728a65.012 65.012 0 0 1 2.604 18.272c0 6.345-.909 12.476-2.604 18.273-.48 1.642-2.014 2.727-3.725 2.727h-24.871c-4.481 0-6.721 0-8.432.872a7.997 7.997 0 0 0-3.497 3.497c-.871 1.711-.871 3.951-.871 8.432v24.871c0 1.711-1.086 3.245-2.728 3.725a65.011 65.011 0 0 1-18.272 2.603 65.012 65.012 0 0 1-18.273-2.603c-1.642-.48-2.728-2.014-2.728-3.725v-24.871c0-4.481 0-6.721-.871-8.432a7.999 7.999 0 0 0-3.497-3.497c-1.71-.872-3.951-.872-8.431-.872H52.41c-1.711 0-3.245-1.085-3.725-2.727a65.028 65.028 0 0 1-2.603-18.273c0-6.344.908-12.475 2.603-18.272Z" stroke="#fff" stroke-width="6"/><g opacity=".2"><circle cx="1656.08" cy="69.063" r="26" stroke="#fff" stroke-width="3"/><circle cx="1604.08" cy="121.062" r="26" stroke="#fff" stroke-width="3"/><circle cx="1707.08" cy="121.062" r="26" stroke="#fff" stroke-width="3"/><circle cx="1656.08" cy="172.062" r="26" stroke="#fff" stroke-width="3"/><path d="M1654.56 79.063V71.68l-6.66-12.524h4.08l3.91 7.588c.13.255.24.497.34.725.1.219.2.446.29.683h.08c.09-.237.19-.465.29-.683.1-.228.21-.47.34-.725l3.95-7.588h3.66l-6.57 12.414v7.493h-3.71Zm-7.79 102.999 7.12-19.974h3.91l7.15 19.974h-3.84l-4.91-14.423c-.11-.328-.2-.634-.27-.916-.08-.283-.14-.561-.21-.834h-.09c-.06.273-.12.551-.19.834-.08.282-.17.588-.28.916l-4.87 14.423h-3.52Zm3.7-4.621.81-2.707h8.97l.8 2.707h-10.58Zm-54.52-46.379 6.93-11.292h.6l4.98-8.614h3.67l-6.51 10.856h-.57l-5.36 9.05h-3.74Zm.32-19.906 4.17.014 5.06 8.586h.06l6.97 11.306h-4.2l-5.38-9.009h-.05l-6.63-10.897Zm104.66 19.906v-19.906h7.13c2.06 0 3.64.429 4.76 1.285 1.12.848 1.68 2.147 1.68 3.897 0 1.112-.25 2.028-.76 2.748-.5.72-1.14 1.212-1.9 1.476v.055c.95.265 1.73.798 2.34 1.6.61.802.91 1.864.91 3.185 0 1.796-.6 3.19-1.82 4.184-1.2.984-2.81 1.476-4.82 1.476h-7.52Zm3.63-2.666h3.57c1.12 0 1.95-.287 2.48-.861.53-.574.79-1.353.79-2.338 0-.975-.26-1.754-.79-2.338-.53-.583-1.36-.875-2.48-.875h-3.57v6.412Zm0-8.845h3.2c1.12 0 1.92-.251 2.41-.752.49-.511.74-1.222.74-2.133 0-.902-.25-1.595-.74-2.078-.49-.483-1.29-.725-2.41-.725h-3.2v5.688Z" fill="#fff"/></g><path opacity=".2" stroke="#fff" d="M439.083 76.063h888v556h-888z"/><rect opacity=".2" x="373.083" y="39.063" width="1016" height="629" rx="6" stroke="#fff" stroke-width="3"/><path opacity=".2" d="M6.343 240.981c-.483-37.402-.844-65.423.694-87.67 1.538-22.241 4.973-38.668 12.058-52.888a131.5 131.5 0 0 1 57.549-58.296c14.127-7.267 30.508-10.914 52.727-12.739 22.226-1.825 50.249-1.826 87.654-1.826H1548.14c37.4 0 65.43 0 87.65 1.826 22.22 1.825 38.6 5.472 52.73 12.74a131.523 131.523 0 0 1 57.55 58.295c7.08 14.22 10.52 30.647 12.06 52.888 1.54 22.247 1.17 50.268.69 87.67l-.12 9.581h-59.64c-8.38 0-14.7 0-19.72.411-5.04.411-8.81 1.237-12.1 2.914a30.475 30.475 0 0 0-13.33 13.329c-1.68 3.291-2.51 7.068-2.92 12.102-.41 5.023-.41 11.341-.41 19.722v94.022c0 5.096 0 11.427.09 15.167 0 18.06-10.4 42.079-26.11 68.733-15.7 26.632-36.63 55.802-57.58 84.136-4.9 6.632-9.81 13.22-14.65 19.718-15.82 21.25-30.93 41.545-42.97 59.352-7.86 11.626-14.42 22.207-19.02 31.311-4.45 8.829-7.1 16.333-7.24 22.083H280.069c-.144-5.869-2.788-13.451-7.248-22.329-4.596-9.148-11.156-19.738-19.016-31.352-12.067-17.83-27.222-38.109-43.087-59.336a7192.93 7192.93 0 0 1-14.53-19.489c-20.947-28.229-41.879-57.304-57.575-83.95-15.708-26.669-26.112-50.812-26.114-69.205.083-3.663.083-9.886.083-14.833v-94.029c0-8.381 0-14.698-.41-19.721-.411-5.034-1.237-8.811-2.914-12.102a30.498 30.498 0 0 0-13.329-13.329c-3.29-1.677-7.069-2.503-12.102-2.914-5.023-.411-11.34-.411-19.721-.411H6.466l-.123-9.581Z" stroke="#fff"/><path opacity=".2" d="M132.583 1.063c-32.5 0-65.5 9-81 33.5 24-24.5 86.5-27 110-27s123.5 3.5 121.5 0-10.5-6.5-19.5-6.5h-131Zm1497.027 0c32.5 0 65.5 9 81 33.5-24-24.5-86.5-27-110-27s-123.5 3.5-121.5 0 10.5-6.5 19.5-6.5h131Z" stroke="#fff" stroke-width="2"/></svg>
